X: 3004
T: The Highland Lass
P: The Fairy Hillock
C:Pipe Tune
R:Reel (8x32)
B:RSCDS 30-3
Z:Anselm Lingnau <anselm@strathspey.org>
M:C
L:1/8
K:Am
ed|"Am"c2A2 ABcB|ABce a2e2|"G"B2G2 GABA|GABc d2 "E7"ed|
   "Am"c2A2 ABcB|ABce a2e2|"G"B2G2 "E7"eaed|"Am"c2A2 A2 z||
B|"Am"Aa^ga Aaga|Aa^ga e2 "D7"dc|"G"Bgdg Bgdg|BGBc d2 "E7"cB|
  "Am"Aa^ga Aaga|Aa^ga e2 "D7"dc|"G"Bgdg "E7"eaed|"Am"c2A2A2|]
%%center Book30/3003-Highland_Lass-AL.abc

%%sep 1 1 500
%%sep 1 1 500

